X:1
T:Sept Ans Sur Mer
M:9/8
L:1/4
K:C
 D/2 CF/4-A/4| A3/2- F A/2 A/4- c3/4 A/2|A/4-G/4 G z z/2 G A/2| E3/2- C C/2 DE/4-D/4|\
 C z/2 z D/2 CF/4-A/4| A3/2- F A/2 A/4- c3/4 A/2|A/4-G/4 G z z/2 G A/2|\
 E3/2- C C/2 DE/4-D/4| C z/2 z||
